X:1
T:Davis, 11.8.11.8
T:Davis, 11.8.11.8
T:Attributed to Freeman Lewis, 1813
T:Public Domain Courtesy of the Cyber Hymnal™
C:Attributed to Freeman Lewis, 1813
Z:Public Domain
Z:Courtesy of the Cyber Hymnal™
%%score ( 1 2 ) ( 3 4 )
L:1/8
M:4/4
K:Db
V:1 treble 
V:2 treble 
V:3 bass 
V:4 bass 
V:1
 D2 | (D3- [DE]) [DF]2 [EG]2 | ([FA]3 [GB]) [FA]2 [EG]2 | [DF]4 [CE]2 [CE]2 | D6 [FA]2 | %5
 [Fd]4 [Fd]2 [Ge]2 | [Fd]4 [EB]2 [DB]2 | [CA]6 [FA]2 | [Fd]4 [Fd]2 [GB]2 | [FA]4 [DF]2 [DA]2 | %10
 [DB]4 [DA]2 [DF]2 | [CE]4 D2 [DF]2 | ([FA]3 [GB]) [FA]2 D2 | [DF]4 [CE]2 [CE]2 | [A,D]6 |] %15
V:2
 D2 | D3 x5 | x8 | x8 | D6 x2 | x8 | x8 | x8 | x8 | x8 | x8 | x4 D2 x2 | x6 D2 | x8 | x6 |] %15
V:3
 [D,F,]2 | (F,3 G,) [D,A,]2 [D,A,]2 | [D,D]4 [D,D]2 [G,,B,]2 | [A,,A,]4 [A,,A,]2 [A,,G,]2 | %4
 [D,F,]6 [D,D]2 | [D,A,]4 [D,A,]2 [D,A,]2 | [D,A,]4 [E,A,]2 [E,=G,]2 | [A,,A,]6 [D,A,]2 | %8
 [D,A,]4 [D,A,]2 [D,D]2 | [D,D]4 [D,A,]2 [F,D]2 | [G,D]4 [F,D]2 [D,A,]2 | %11
 [A,,A,]4 [D,F,]2 [D,A,]2 | [D,D]4 [D,D]2 [F,A,]2 | A,4 [A,,A,]2 [A,,G,]2 | [D,F,]6 |] %15
V:4
 x2 | D,4 x4 | x8 | x8 | x8 | x8 | x8 | x8 | x8 | x8 | x8 | x8 | x8 | A,4 x4 | x6 |] %15

